!!!OTL: ZU STRASSBURG AUF DER SCHANZ
!!!ARE: Europa, Mitteleuropa, Deutschland
!!!SCT: F0579
!!!YEM: Copyright 1995, estate of Helmut Schaffrath.
**kern
*ICvox
*Ivox
*M4/4
*k[f#]
*G:
{4d
=1
4.g
8d
4g
4a
=2
2b
4r}
{8g
8a
=3
4.b
8b
8b
8a
4a
=4
2g
4r}
{8g
8a
=5
8b
8b
8b
8b
8b
8b
8a
8b
=6
2cc
4r}
{8cc
8b
=7
8b
8a
4a
4a
8g
8a
=8
4b
8dd
8cc
4b}
{4a
=9
8g
8b
8a
8cc
4b
8dd
8cc
=10
4b
4a
4g}
==
!!!AGN: Soldaten - Lied, Deserteur
!!!ONB: ESAC (Essen Associative Code) Database: FINK
!!!AMT: simple quadruple
!!!AIN: vox
!!!EED: Helmut Schaffrath
!!!EEV: 1.0
*-
